X: 89
T: Preludium Es-dur
C: Maria Szymanowska
%%abc-version 2.0
%%abcx-abcm2ps-target-version 5.9.1 (29 Sep 2008)
%%abc-creator hum2abc beta
%%abcx-conversion-date 2021/10/04 07:38:39
%%abc-edited-by Leszek Kubiak
%%abc-edited-by Berenika Jozajtis
%%abcx-initial-encoding-date 2020-06-17
%%humdrum-veritas 2205448821
%%humdrum-veritas-data 4085602330
%%linebreak <none>
%%barnumbers 0
L: 1/8
M: 12/8
N: Derived from pl-kozmzk--mzk-m-31--016_szymanowska-maria--preludium-es-dur.krn
%%staves {1 2}
V: 1 clef=treble
V: 2 clef=bass
K: Eb
[V:1] GA=ABG x DF_AcB x | 
[V:2] x3x2E2<x2x2A | 
[V:1] GA=ABG x DF_AcB x | 
[V:2] x3x2E2<x2x2A | 
[V:1] GB_dfe x ceac'b x | 
[V:2] x3x2d2<x2x2a | 
[V:1] ga=abg x x ec x cA | 
[V:2] x3x2e !wedge!dx2!wedge!Bx2 | 
[V:1] GA=ABG x DF_AcB x | 
[V:2] x3x2E2<x2x2A | 
[V:1] _GA=ABG x DFA_cB x | 
[V:2] x3x2E2<x2x2A | 
[V:1] GB_d_fe x ce_g__ba x | 
[V:2] x3x2!wedge!d2<x2x2g | 
[V:1] fa_c'__e'_d' x __ba x f__e x | 
[V:2] x3x2c'x2_gx2_d | 
[V:1] x !accent!ac x !accent!fA x !accent!dF x !accent!_cD | 
[V:2] _cx2Ax2Fx2Dx2 | 
[V:1] x AC x FA, x DF, x _CB, | 
[V:2] _Cx2A,x2F,x2D,x2 | 
[V:1] z !accent!_CB, z !accent!CB, z E_G, z [=A,F]E | 
[V:2] E,3_D,3_C,3_C,,3 | 
[V:1] DFA_cD z DFABD z | 
[V:2] [B,,,B,,]z2z2_c'bz2z2B, | 
[V:1] E_GBeE z _CEF=AE z | 
[V:2] B,,z2z2be'z2z2!accent!_C | 
[V:1] DFA_cD z DFABD z | 
[V:2] B,z2z2!accent!_c'bz2z2B, | 
[V:1] E_GBeE z _CEF=AE z | 
[V:2] B,,z2z2e'=a'z2z2_C, | 
[V:1] DFBdFB dBdfdf | 
[V:2] B,,z2z F,B,DB,DFDF | 
[V:1] bfbd'bd' f'd'f'b'f'd' | 
[V:2] [K:clef=treble]BFBdBd fdfbfd | 
[V:1] bfd BFD B,F,D, B,,F,,D,, ||  
[V:2] Bz2[K:clef=bass]B,z2B,,z2B,,z2 ||  
[V:1]  [K:E] z !accent!ad !accent!afd !accent!AFD !accent!A,F,D, | 
[V:2]  [K:E] [B,,,12B,,12] | 
[V:1] E, [EG][FA] [GB][FA][EG]z2z [g'b'][f'a'][e'g'] | 
[V:2] E,,2zz2z [gb][fa][eg]z2z[K:clef=treble] | 
[V:1] [f'a'][g'b'][f'a'] [e'g'][d'f'][c'e'] [bd'][ac'][gb] [fa][gb][fa] | 
[V:2] [B,2B2]z[B2f2a2]z[B,2F2A2]z[K:clef=bass]!accent![D,3D3] | 
[V:1] [eg] [EG][FA] [GB][FA][EG]z2z [g'b'][f'a'][e'g'] | 
[V:2] [E,2E2]zz2z [gb][fa][eg]z2z | 
[V:1] [f'a'][g'b'][f'a'] [e'g'][d'f'][c'e'] [bd'][ac'][bd'] [Gfa][gb][fa] | 
[V:2] [K:clef=treble][B,2B2]z[B2f2a2]z[B,2F2A2]z[K:clef=bass]!accent![D,3D3] | 
[V:1]  [K:E] [e2=g2]z [_A_B]=d[AB][=G2_e2]z [g=a]^c'[ga] | 
[V:2]  [K:E] [E,2E2]z2<[_F,2_F2][_E,2_E2]z[_E3_e3] | 
[V:1] =d'2z [_G_A]=c[GA][=F2_d2]z [=f=g]=b[fg] | 
[V:2] [=D2=d2^f2=d'2]z2<[__E,2__E2][_D,2_D2]z[_D3_d3] | 
[V:1] [e2=c'2]z [E^F]^A[EF][^D2B2]z [_e=f]=a[ef] ||  
[V:2] [=C2=c2]z2<[=C,2C2][B,,2B,2]z[C3c3] ||  
[V:1]  [K:Eb] [d2b2]z BcB BcB BcB & x2z2<D2E3A3 | 
[V:2]  [K:Eb] [B,2B2]z2<[A,,2A,2][G,,3G,3][D,,3D,3] | 
[V:1] B2z G=AG GAG GAG & G2z=B,2x2<C2F3 | 
[V:2] [E,,2E,2]z2<[F,,2F,2][G,,3G,3][=B,,,3=B,,3] | 
[V:1] G2z fgff2z bc'b & E2z2<e2d2xd3 | 
[V:2] [C,,2C,2]z2<[K:clef=treble]!accent!=A2B2z!accent!_A3 | 
[V:1] b2z bafe2zd2z & e2z2<c2G2xA2x | 
[V:2] G2z2<A2B2zB,2z | 
[V:1] GA=ABG x DF_AcB x | 
[V:2] [K:clef=bass]x3x2E2<x2x2A | 
[V:1] GA=ABG x DF_A_cB x | 
[V:2] x3x2E2<x2z2A | 
[V:1] GBegde G_deg=de | 
[V:2] [E,E]z2e'z2[E,E]z2e'z2 | 
[V:1] Acea=de A=BdaBd | 
[V:2] [E,E]z2e'z2[E,E]z2f'3 | 
[V:1] Ge_Bg=de Ge_dg=de | 
[V:2] e'z2E,z2e'z2E,z2 | 
[V:1] Aecade Ad=BaBd | 
[V:2] e'z2E,z2d'z2E,z2 | 
[V:1] Ge_Bgde GeBgde | 
[V:2] e'z2E,z2g'z2E,z2 | 
[V:1] GeBgde GeBgde | 
[V:2] b'z2E,z2g'z2E,z2 | 
[V:1] [G2e2]z[G2B2e2g2]z!fermata![E4G4B4e4]x2 |]  
[V:2] e'2z[E,2E2]z[E,,6E,6] |]  


